resources/svg/lightning-cable.svg

<svg xmlns="http://www.w3.org/2000/svg" viewBox="0 0 15 15" fill="currentColor"><path fill-rule="evenodd" clip-rule="evenodd" d="M5.5 0C4.67157 0 4 0.671573 4 1.5V5H11V1.5C11 0.671573 10.3284 0 9.5 0H5.5ZM6 2H9V3H6V2Z" fill="black"/><path d="M3 6H12V11.5C12 12.3284 11.3284 13 10.5 13L10 13V15H9V13H6V15H5V13L4.5 13C3.67157 13 3 12.3284 3 11.5V6Z" fill="black"/></svg>

<svg xmlns="http://www.w3.org/2000/svg" viewBox="0 0 15 15" fill="currentColor"><path fill-rule="evenodd" clip-rule="evenodd" d="M5.5 0A1.5 1.5 0 004 1.5V5h7V1.5A1.5 1.5 0 009.5 0h-4zM6 2h3v1H6V2z" fill="currentColor"/><path d="M3 6h9v5.5a1.5 1.5 0 01-1.5 1.5H10v2H9v-2H6v2H5v-2h-.5A1.5 1.5 0 013 11.5V6z" fill="currentColor"/></svg>
